resources/svg/user-md-o.svg

<svg xmlns="http://www.w3.org/2000/svg" data-name="Layer 1" viewBox="0 0 24 24" fill="currentColor" stroke="none"><path d="M15.8985,13.229l-.00427-.00183c-.06336-.02673-.12439-.05774-.18836-.08313A5.98759,5.98759,0,0,0,18,8.43457a5.2899,5.2899,0,0,0-.04468-.63049.94592.94592,0,0,0,.03784-.12195l.28125-2.39746A3.00567,3.00567,0,0,0,15.83154,1.9834l-.79-.14356a16.931,16.931,0,0,0-6.08252,0l-.791.14356A3.0057,3.0057,0,0,0,5.72559,5.28467l.28125,2.39746a.94592.94592,0,0,0,.03784.122A5.2899,5.2899,0,0,0,6,8.43457,5.98759,5.98759,0,0,0,8.29413,13.144c-.064.02539-.125.0564-.18836.08313L8.1015,13.229a9.94794,9.94794,0,0,0-6.03558,8.09717,1,1,0,0,0,1.98828.2168A7.94836,7.94836,0,0,1,8.26965,15.358L11.293,18.38135a.99963.99963,0,0,0,1.41406,0L15.73035,15.358A7.94836,7.94836,0,0,1,19.9458,21.543a.99992.99992,0,0,0,.99268.8916,1.048,1.048,0,0,0,.10986-.00586,1.00007,1.00007,0,0,0,.88574-1.10254A9.94794,9.94794,0,0,0,15.8985,13.229ZM7.71191,5.05127a1.00179,1.00179,0,0,1,.814-1.1001l.79053-.14355a14.92975,14.92975,0,0,1,5.36718,0l.79.14355a1.00176,1.00176,0,0,1,.81446,1.1001l-.17774,1.51416H7.88965ZM12,16.26025,10.34973,14.61a7.8502,7.8502,0,0,1,3.30054,0Zm0-3.82568A4.005,4.005,0,0,1,8.002,8.56543h7.9961A4.005,4.005,0,0,1,12,12.43457Z"/></svg>

<svg xmlns="http://www.w3.org/2000/svg" data-name="Layer 1" viewBox="0 0 24 24" fill="currentColor" stroke="none"><path d="m15.899 13.229-.005-.002c-.063-.027-.124-.058-.188-.083A5.988 5.988 0 0 0 18 8.434a5.29 5.29 0 0 0-.045-.63.946.946 0 0 0 .038-.122l.281-2.397a3.006 3.006 0 0 0-2.442-3.302l-.79-.143a16.931 16.931 0 0 0-6.083 0l-.791.143a3.006 3.006 0 0 0-2.442 3.302l.28 2.397a.946.946 0 0 0 .039.122 5.29 5.29 0 0 0-.045.63 5.988 5.988 0 0 0 2.294 4.71c-.064.025-.125.056-.188.083l-.005.002a9.948 9.948 0 0 0-6.035 8.097 1 1 0 0 0 1.988.217 7.948 7.948 0 0 1 4.216-6.185l3.023 3.023a1 1 0 0 0 1.414 0l3.023-3.023a7.948 7.948 0 0 1 4.216 6.185 1 1 0 0 0 .992.892 1.048 1.048 0 0 0 .11-.006 1 1 0 0 0 .886-1.103 9.948 9.948 0 0 0-6.036-8.097ZM7.712 5.051a1.002 1.002 0 0 1 .814-1.1l.79-.143a14.93 14.93 0 0 1 5.368 0l.79.143a1.002 1.002 0 0 1 .814 1.1l-.178 1.514H7.89ZM12 16.261l-1.65-1.651a7.85 7.85 0 0 1 3.3 0Zm0-3.826a4.005 4.005 0 0 1-3.998-3.87h7.996A4.005 4.005 0 0 1 12 12.435Z"/></svg>
